static/assets/images/tokens/sbtc.svg

<svg width="256" height="256" viewBox="0 0 256 256" fill="none" xmlns="http://www.w3.org/2000/svg">
<path d="M64.0132 238.833C125.223 274.173 203.492 253.201 238.832 191.99C274.173 130.778 253.202 52.5062 191.992 17.1663C130.779 -18.1729 52.5068 2.80018 17.1661 64.0124C-18.1735 125.223 2.80143 203.492 64.0132 238.833Z" fill="#133348"/>
<path fill-rule="evenodd" clip-rule="evenodd" d="M77.6167 215.287C125.819 243.117 187.458 226.602 215.289 178.397C243.119 130.194 226.602 68.5556 178.399 40.7256C130.195 12.8946 68.5573 29.4104 40.7275 77.6134C12.8967 125.818 29.4123 187.456 77.6167 215.287ZM72.0172 224.986C125.577 255.909 194.062 237.558 224.985 183.998C255.908 130.438 237.558 61.9498 183.999 31.0269C130.439 0.103962 61.9523 18.4565 31.0306 72.0148C0.106927 125.577 18.4576 194.063 72.0172 224.986Z" fill="white"/>
<path d="M179.624 113.642C181.305 99.333 171.344 90.3423 156.055 84.6752L161.81 64.3967L149.661 61.1008L143.879 81.2844C140.703 80.41 137.509 79.367 134.221 78.5492L139.95 58.4539L127.796 55.1577L122.041 75.4362C119.398 74.7903 97.5226 68.8013 97.5226 68.8013L93.778 81.9986C93.778 81.9986 102.815 84.2564 102.622 84.3851C107.566 85.7225 108.328 89.0803 108.072 91.6941L92.3404 147.293C91.6711 148.788 90.0525 151.053 86.6171 150.151C86.7407 150.341 77.7924 147.735 77.7924 147.735L71.1769 161.838C71.1769 161.838 92.8429 167.786 95.6707 168.58L89.8545 189.101L102.008 192.398L107.897 171.755C111.2 172.745 114.435 173.651 117.582 174.508L111.717 195.043L123.871 198.34L129.672 177.849C148.231 183.203 165.729 179.344 172.613 161.998C176.675 151.502 170.94 137.631 162.885 131.779C170.926 130.063 177.616 124.644 179.624 113.642ZM150.17 152.922C143.11 169.966 120.459 159.489 112.232 157.26L119.719 129.979C127.976 132.226 154.702 136.937 150.17 152.922ZM155.811 113.176C149.92 128.534 130.524 119.537 123.692 117.673L130.475 92.9057C137.318 94.8189 158.824 97.5136 155.811 113.176Z" fill="white"/>
</svg>

<svg xmlns="http://www.w3.org/2000/svg" fill="none" viewBox="0 0 256 256"><path fill="#133348" d="M64.013 238.833c61.21 35.34 139.479 14.368 174.819-46.843 35.341-61.212 14.37-139.484-46.84-174.824C130.779-18.173 52.507 2.8 17.166 64.012S2.801 203.492 64.013 238.833"/><path fill="#fff" fill-rule="evenodd" d="M77.617 215.287c48.202 27.83 109.841 11.315 137.672-36.89 27.83-48.203 11.313-109.841-36.89-137.671C130.195 12.895 68.557 29.41 40.728 77.613c-27.831 48.205-11.316 109.843 36.889 137.674m-5.6 9.699c53.56 30.923 122.045 12.572 152.968-40.988S237.558 61.95 183.999 31.027C130.439.104 61.952 18.457 31.031 72.015.107 125.577 18.458 194.063 72.017 224.986" clip-rule="evenodd"/><path fill="#fff" d="M179.624 113.642c1.681-14.309-8.28-23.3-23.569-28.967l5.755-20.278-12.149-3.296-5.782 20.183c-3.176-.874-6.37-1.917-9.658-2.735l5.729-20.095-12.154-3.296-5.755 20.278c-2.643-.646-24.518-6.635-24.518-6.635L93.778 82s9.037 2.257 8.844 2.386c4.944 1.337 5.706 4.695 5.45 7.31L92.34 147.292c-.669 1.495-2.288 3.76-5.723 2.858.124.19-8.825-2.416-8.825-2.416l-6.615 14.103s21.666 5.948 24.494 6.742L89.854 189.1l12.154 3.297 5.889-20.643c3.303.99 6.538 1.896 9.685 2.753l-5.865 20.535 12.154 3.297 5.801-20.491c18.559 5.354 36.057 1.495 42.941-15.851 4.062-10.496-1.673-24.367-9.728-30.219 8.041-1.716 14.731-7.135 16.739-18.137m-29.454 39.28c-7.06 17.044-29.711 6.567-37.938 4.338l7.487-27.281c8.257 2.247 34.983 6.958 30.451 22.943m5.641-39.746c-5.891 15.358-25.287 6.361-32.119 4.497l6.783-24.767c6.843 1.913 28.349 4.608 25.336 20.27"/></svg>
